img/icons/Football.svg

<svg width="43" height="46" viewBox="0 0 43 46" fill="none" xmlns="http://www.w3.org/2000/svg">
<path d="M2.45 35.3V37.15H5.69V38.45H2.45V41H0.83V34H6.12V35.3H2.45ZM9.53 41.08C8.96333 41.08 8.45333 40.9633 8 40.73C7.55333 40.49 7.20333 40.16 6.95 39.74C6.69667 39.32 6.57 38.8433 6.57 38.31C6.57 37.7767 6.69667 37.3 6.95 36.88C7.20333 36.46 7.55333 36.1333 8 35.9C8.45333 35.66 8.96333 35.54 9.53 35.54C10.0967 35.54 10.6033 35.66 11.05 35.9C11.4967 36.1333 11.8467 36.46 12.1 36.88C12.3533 37.3 12.48 37.7767 12.48 38.31C12.48 38.8433 12.3533 39.32 12.1 39.74C11.8467 40.16 11.4967 40.49 11.05 40.73C10.6033 40.9633 10.0967 41.08 9.53 41.08ZM9.53 39.8C9.93 39.8 10.2567 39.6667 10.51 39.4C10.77 39.1267 10.9 38.7633 10.9 38.31C10.9 37.8567 10.77 37.4967 10.51 37.23C10.2567 36.9567 9.93 36.82 9.53 36.82C9.13 36.82 8.8 36.9567 8.54 37.23C8.28 37.4967 8.15 37.8567 8.15 38.31C8.15 38.7633 8.28 39.1267 8.54 39.4C8.8 39.6667 9.13 39.8 9.53 39.8ZM16.0827 41.08C15.5161 41.08 15.0061 40.9633 14.5527 40.73C14.1061 40.49 13.7561 40.16 13.5027 39.74C13.2494 39.32 13.1227 38.8433 13.1227 38.31C13.1227 37.7767 13.2494 37.3 13.5027 36.88C13.7561 36.46 14.1061 36.1333 14.5527 35.9C15.0061 35.66 15.5161 35.54 16.0827 35.54C16.6494 35.54 17.1561 35.66 17.6027 35.9C18.0494 36.1333 18.3994 36.46 18.6527 36.88C18.9061 37.3 19.0327 37.7767 19.0327 38.31C19.0327 38.8433 18.9061 39.32 18.6527 39.74C18.3994 40.16 18.0494 40.49 17.6027 40.73C17.1561 40.9633 16.6494 41.08 16.0827 41.08ZM16.0827 39.8C16.4827 39.8 16.8094 39.6667 17.0627 39.4C17.3227 39.1267 17.4527 38.7633 17.4527 38.31C17.4527 37.8567 17.3227 37.4967 17.0627 37.23C16.8094 36.9567 16.4827 36.82 16.0827 36.82C15.6827 36.82 15.3527 36.9567 15.0927 37.23C14.8327 37.4967 14.7027 37.8567 14.7027 38.31C14.7027 38.7633 14.8327 39.1267 15.0927 39.4C15.3527 39.6667 15.6827 39.8 16.0827 39.8ZM23.5455 40.74C23.3921 40.8533 23.2021 40.94 22.9755 41C22.7555 41.0533 22.5221 41.08 22.2755 41.08C21.6355 41.08 21.1388 40.9167 20.7855 40.59C20.4388 40.2633 20.2655 39.7833 20.2655 39.15V36.94H19.4355V35.74H20.2655V34.43H21.8255V35.74H23.1655V36.94H21.8255V39.13C21.8255 39.3567 21.8821 39.5333 21.9955 39.66C22.1155 39.78 22.2821 39.84 22.4955 39.84C22.7421 39.84 22.9521 39.7733 23.1255 39.64L23.5455 40.74ZM27.6012 35.54C28.1012 35.54 28.5545 35.6567 28.9612 35.89C29.3745 36.1167 29.6978 36.44 29.9312 36.86C30.1645 37.2733 30.2812 37.7567 30.2812 38.31C30.2812 38.8633 30.1645 39.35 29.9312 39.77C29.6978 40.1833 29.3745 40.5067 28.9612 40.74C28.5545 40.9667 28.1012 41.08 27.6012 41.08C26.8612 41.08 26.2978 40.8467 25.9112 40.38V41H24.4212V33.58H25.9812V36.19C26.3745 35.7567 26.9145 35.54 27.6012 35.54ZM27.3312 39.8C27.7312 39.8 28.0578 39.6667 28.3112 39.4C28.5712 39.1267 28.7012 38.7633 28.7012 38.31C28.7012 37.8567 28.5712 37.4967 28.3112 37.23C28.0578 36.9567 27.7312 36.82 27.3312 36.82C26.9312 36.82 26.6012 36.9567 26.3412 37.23C26.0878 37.4967 25.9612 37.8567 25.9612 38.31C25.9612 38.7633 26.0878 39.1267 26.3412 39.4C26.6012 39.6667 26.9312 39.8 27.3312 39.8ZM33.4076 35.54C34.2409 35.54 34.8809 35.74 35.3276 36.14C35.7742 36.5333 35.9976 37.13 35.9976 37.93V41H34.5376V40.33C34.2442 40.83 33.6976 41.08 32.8976 41.08C32.4842 41.08 32.1242 41.01 31.8176 40.87C31.5176 40.73 31.2876 40.5367 31.1276 40.29C30.9676 40.0433 30.8876 39.7633 30.8876 39.45C30.8876 38.95 31.0742 38.5567 31.4476 38.27C31.8276 37.9833 32.4109 37.84 33.1976 37.84H34.4376C34.4376 37.5 34.3342 37.24 34.1276 37.06C33.9209 36.8733 33.6109 36.78 33.1976 36.78C32.9109 36.78 32.6276 36.8267 32.3476 36.92C32.0742 37.0067 31.8409 37.1267 31.6476 37.28L31.0876 36.19C31.3809 35.9833 31.7309 35.8233 32.1376 35.71C32.5509 35.5967 32.9742 35.54 33.4076 35.54ZM33.2876 40.03C33.5542 40.03 33.7909 39.97 33.9976 39.85C34.2042 39.7233 34.3509 39.54 34.4376 39.3V38.75H33.3676C32.7276 38.75 32.4076 38.96 32.4076 39.38C32.4076 39.58 32.4842 39.74 32.6376 39.86C32.7976 39.9733 33.0142 40.03 33.2876 40.03ZM37.4095 33.58H38.9695V41H37.4095V33.58ZM40.4173 33.58H41.9773V41H40.4173V33.58Z" fill="#E5E5E5"/>
<path d="M31.7906 5.72637C29.7546 3.14121 26.8871 1.27236 23.7164 0.464063C23.4811 0.404063 23.2419 0.546211 23.1821 0.781348C23.1221 1.01654 23.2641 1.25578 23.4993 1.31572C23.6373 1.35088 23.7745 1.38896 23.9113 1.42834C23.9 2.05242 23.8689 2.65418 23.818 3.22307C23.2818 3.54457 21.6453 4.4867 20 5.03947C18.357 4.48734 16.7186 3.54457 16.182 3.22295C16.1313 2.65518 16.1002 2.05459 16.0889 1.43162C17.3557 1.06805 18.6753 0.878906 20 0.878906C20.4546 0.878906 20.9133 0.900762 21.3634 0.943828C21.6053 0.967266 21.8196 0.789844 21.8427 0.548262C21.8659 0.306621 21.6887 0.0920508 21.4471 0.0689062C20.9693 0.0232031 20.4824 0 20 0C17.5923 0 15.1986 0.584238 13.0776 1.68949C11.0252 2.759 9.21975 4.31631 7.85639 6.19295C7.71377 6.38936 7.75736 6.66416 7.95365 6.80678C8.03164 6.86344 8.12205 6.89074 8.21158 6.89074C8.34746 6.89074 8.48146 6.82793 8.56742 6.70957C9.26457 5.74992 10.0853 4.87992 10.9985 4.12307C11.4898 4.4816 11.9527 4.84336 12.3792 5.20266C12.3348 5.82674 12.1674 7.70959 11.6773 9.37207C10.2826 10.4012 8.57059 11.2025 7.99936 11.4577C7.53898 11.193 7.06467 10.8978 6.58414 10.5773C6.81594 9.87598 7.10334 9.19025 7.4484 8.52299C7.55984 8.30742 7.47547 8.04229 7.2599 7.93078C7.04428 7.81934 6.77914 7.90365 6.6677 8.11928C5.57674 10.2294 5 12.6086 5 15C5 19.0066 6.56029 22.7735 9.39336 25.6066C12.2265 28.4397 15.9934 30 20 30C24.0066 30 27.7735 28.4397 30.6066 25.6066C33.4397 22.7735 35 19.0066 35 15C35 11.599 33.8902 8.39227 31.7906 5.72637ZM31.1001 6.27018C32.133 7.58162 32.9108 9.03234 33.4186 10.5755C32.9373 10.8966 32.462 11.1925 32.0006 11.4577C31.4296 11.2029 29.7192 10.4027 28.3227 9.37207C27.8326 7.70953 27.6651 5.82674 27.6208 5.20266C28.047 4.84353 28.5099 4.48189 29.001 4.12342C29.7718 4.76057 30.4774 5.47951 31.1001 6.27018ZM20.4395 5.8176C22.4749 5.10574 24.385 3.90838 24.4692 3.85529C24.5837 3.78305 24.6586 3.66199 24.672 3.52723C24.7294 2.95213 24.7668 2.34352 24.784 1.71158C26.0283 2.16141 27.2062 2.78742 28.2784 3.56396C27.7805 3.9341 27.3123 4.30729 26.8817 4.67754C26.7791 4.76584 26.7228 4.89662 26.7293 5.03191C26.7341 5.1317 26.8496 7.40145 27.4402 9.4841C26.1077 10.5788 24.7527 11.4956 24.2272 11.8419C23.6408 11.4911 22.0811 10.6015 20.4394 10.0274V5.8176H20.4395ZM11.7195 3.56232C12.2803 3.15504 12.8702 2.78865 13.4837 2.46891C14.0426 2.1777 14.6221 1.92639 15.216 1.71334C15.2333 2.34475 15.2707 2.95271 15.3279 3.52717C15.3413 3.66193 15.4162 3.78299 15.5308 3.85529C15.6149 3.90838 17.5251 5.10574 19.5605 5.8176V10.0273C17.9188 10.6014 16.359 11.4911 15.7727 11.8419C15.2472 11.4956 13.8922 10.5787 12.5597 9.48404C13.1503 7.40139 13.2657 5.1317 13.2706 5.03186C13.2771 4.89656 13.2208 4.76578 13.1182 4.67748C12.687 4.30664 12.2181 3.93293 11.7195 3.56232ZM5.87891 15C5.87891 13.7872 6.02938 12.6043 6.32504 11.4595C6.81219 11.7778 7.2926 12.0701 7.75871 12.3317C7.82527 12.3691 7.89939 12.3879 7.97381 12.3879C8.03146 12.3879 8.0893 12.3766 8.14379 12.3537C8.2352 12.3154 10.2942 11.4448 12.04 10.1945C13.4155 11.3214 14.7761 12.2393 15.3031 12.5854C15.2434 13.2935 15.113 15.282 15.3043 17.4433C14.7884 17.8247 13.3884 18.8896 12.0182 20.1891C10.2772 18.9472 8.23479 18.0838 8.14379 18.0456C8.01975 17.9936 7.87889 18.0012 7.76111 18.0663C7.73469 18.0809 7.20236 18.3763 6.41768 18.8835C6.06301 17.6363 5.87891 16.3324 5.87891 15ZM15.3283 26.8694C15.3253 26.8969 15.2681 27.4444 15.2326 28.2998C14.0862 27.8897 12.9968 27.3296 11.9874 26.6312C12.6771 26.1049 13.0991 25.7385 13.1203 25.72C13.2217 25.6317 13.2771 25.5018 13.2706 25.3675C13.2698 25.3508 13.2502 24.9514 13.1853 24.3346C13.1598 24.0932 12.9437 23.918 12.7022 23.9435C12.4609 23.9689 12.2858 24.1852 12.3112 24.4266C12.3459 24.7564 12.3672 25.0237 12.3794 25.1958C12.1712 25.3696 11.7749 25.6928 11.2513 26.0858C10.8215 25.7453 10.4084 25.3785 10.0149 24.985C8.51094 23.4811 7.38816 21.6977 6.69477 19.7519C7.28205 19.3662 7.75391 19.0847 8.00006 18.9418C8.57152 19.1969 10.2812 19.9968 11.6773 21.0271C11.7976 21.4354 11.9071 21.886 12.0034 22.369C12.045 22.578 12.2285 22.7227 12.4339 22.7227C12.4623 22.7227 12.4913 22.7199 12.5202 22.7141C12.7583 22.6667 12.9128 22.4353 12.8654 22.1972C12.7729 21.7327 12.668 21.2958 12.5533 20.8932C13.8639 19.6417 15.2499 18.5799 15.788 18.1793C16.3858 18.5362 17.9329 19.4155 19.5606 19.9847V24.5816C17.5252 25.2935 15.615 26.4908 15.5309 26.5439C15.417 26.6158 15.3424 26.7357 15.3283 26.8694ZM20 29.1211C18.6624 29.1211 17.3534 28.9355 16.1018 28.578C16.1234 27.9394 16.16 27.4416 16.1826 27.1758C16.7193 26.854 18.3552 25.9124 20 25.3597C21.6423 25.9116 23.2801 26.8539 23.8174 27.176C23.84 27.4416 23.8766 27.9394 23.8983 28.578C22.6466 28.9355 21.3376 29.1211 20 29.1211ZM24.7674 28.2998C24.7319 27.4443 24.6747 26.8969 24.6717 26.8694C24.6576 26.7356 24.5829 26.6157 24.4692 26.544C24.385 26.4909 22.4749 25.2936 20.4395 24.5817V19.9848C22.0671 19.4156 23.6143 18.5362 24.212 18.1794C24.7498 18.5796 26.1348 19.6404 27.4466 20.893C26.8504 22.9817 26.7342 25.2673 26.7294 25.3674C26.7229 25.5017 26.7783 25.6317 26.8797 25.72C26.9009 25.7384 27.3229 26.1049 28.0127 26.6311C27.0033 27.3297 25.9139 27.8898 24.7674 28.2998ZM29.9851 24.9851C29.5916 25.3787 29.1785 25.7454 28.7488 26.0859C28.2252 25.693 27.829 25.3698 27.6208 25.1961C27.6653 24.5713 27.8328 22.6892 28.3227 21.0273C29.717 19.9985 31.4284 19.1974 32.0002 18.942C32.246 19.0847 32.7172 19.3656 33.3053 19.752C32.6118 21.6977 31.4891 23.4812 29.9851 24.9851ZM32.2389 18.0663C32.1212 18.0012 31.9802 17.9937 31.8563 18.0456C31.7653 18.0838 29.7229 18.9472 27.9818 20.1892C26.611 18.889 25.2104 17.8239 24.695 17.4429C24.7315 17.0293 24.7589 16.5988 24.7753 16.1572C24.7842 15.9147 24.595 15.7107 24.3524 15.7018C24.1103 15.6921 23.9059 15.8821 23.897 16.1246C23.8808 16.5598 23.8542 16.9846 23.818 17.3904C23.2818 17.712 21.6453 18.654 20 19.2069C18.357 18.6547 16.7186 17.712 16.182 17.3904C15.9924 15.2682 16.1285 13.2648 16.1827 12.6214C16.7196 12.2995 18.3554 11.358 20 10.8054C21.6424 11.3574 23.2803 12.2998 23.8174 12.6216C23.8381 12.8639 23.8704 13.2986 23.8923 13.8562C23.9018 14.0987 24.105 14.2877 24.3486 14.2781C24.5912 14.2686 24.78 14.0643 24.7705 13.8217C24.7489 13.2718 24.718 12.8432 24.6965 12.5856C25.2233 12.2396 26.5842 11.3215 27.9599 10.1946C29.7058 11.4449 31.7648 12.3155 31.8562 12.3538C31.9108 12.3767 31.9685 12.388 32.0262 12.388C32.1006 12.388 32.1747 12.3691 32.2413 12.3318C32.7082 12.0697 33.1894 11.7768 33.6772 11.4581C33.9709 12.6007 34.121 13.7872 34.121 15.0001C34.121 16.3324 33.9369 17.6363 33.5823 18.8836C32.7976 18.3763 32.2654 18.0809 32.2389 18.0663Z" fill="#E5E5E5"/>
</svg>

<svg width="43" height="46" fill="none" xmlns="http://www.w3.org/2000/svg"><path d="M2.45 35.3v1.85h3.24v1.3H2.45V41H.83v-7h5.29v1.3H2.45zm7.08 5.78A3.294 3.294 0 018 40.73a2.683 2.683 0 01-1.05-.99 2.714 2.714 0 01-.38-1.43c0-.533.127-1.01.38-1.43.253-.42.603-.747 1.05-.98.453-.24.963-.36 1.53-.36.567 0 1.073.12 1.52.36.447.233.797.56 1.05.98.253.42.38.897.38 1.43 0 .533-.127 1.01-.38 1.43-.253.42-.603.75-1.05.99-.447.233-.953.35-1.52.35zm0-1.28c.4 0 .727-.133.98-.4.26-.273.39-.637.39-1.09 0-.453-.13-.813-.39-1.08-.253-.273-.58-.41-.98-.41s-.73.137-.99.41c-.26.267-.39.627-.39 1.08 0 .453.13.817.39 1.09.26.267.59.4.99.4zm6.553 1.28a3.295 3.295 0 01-1.53-.35 2.684 2.684 0 01-1.05-.99 2.714 2.714 0 01-.38-1.43c0-.533.126-1.01.38-1.43.253-.42.603-.747 1.05-.98a3.22 3.22 0 011.53-.36c.566 0 1.073.12 1.52.36.446.233.796.56 1.05.98.253.42.38.897.38 1.43 0 .533-.127 1.01-.38 1.43-.254.42-.604.75-1.05.99a3.24 3.24 0 01-1.52.35zm0-1.28c.4 0 .726-.133.98-.4.26-.273.39-.637.39-1.09 0-.453-.13-.813-.39-1.08-.254-.273-.58-.41-.98-.41s-.73.137-.99.41c-.26.267-.39.627-.39 1.08 0 .453.13.817.39 1.09.26.267.59.4.99.4zm7.463.94c-.154.113-.344.2-.57.26-.22.053-.454.08-.7.08-.64 0-1.137-.163-1.49-.49-.347-.327-.52-.807-.52-1.44v-2.21h-.83v-1.2h.83v-1.31h1.56v1.31h1.34v1.2h-1.34v2.19c0 .227.056.403.17.53.12.12.286.18.5.18.246 0 .456-.067.63-.2l.42 1.1zm4.055-5.2c.5 0 .954.117 1.36.35.414.227.737.55.97.97.233.413.35.897.35 1.45 0 .553-.116 1.04-.35 1.46a2.513 2.513 0 01-.97.97 2.74 2.74 0 01-1.36.34c-.74 0-1.303-.233-1.69-.7V41h-1.49v-7.42h1.56v2.61c.393-.433.933-.65 1.62-.65zm-.27 4.26c.4 0 .727-.133.98-.4.26-.273.39-.637.39-1.09 0-.453-.13-.813-.39-1.08-.253-.273-.58-.41-.98-.41s-.73.137-.99.41c-.253.267-.38.627-.38 1.08 0 .453.127.817.38 1.09.26.267.59.4.99.4zm6.077-4.26c.833 0 1.473.2 1.92.6.446.393.67.99.67 1.79V41h-1.46v-.67c-.294.5-.84.75-1.64.75-.414 0-.774-.07-1.08-.21-.3-.14-.53-.333-.69-.58a1.51 1.51 0 01-.24-.84c0-.5.186-.893.56-1.18.38-.287.963-.43 1.75-.43h1.24c0-.34-.104-.6-.31-.78-.207-.187-.517-.28-.93-.28-.287 0-.57.047-.85.14a2.17 2.17 0 00-.7.36l-.56-1.09a3.383 3.383 0 011.05-.48 4.79 4.79 0 011.27-.17zm-.12 4.49c.266 0 .503-.06.71-.18.206-.127.353-.31.44-.55v-.55h-1.07c-.64 0-.96.21-.96.63 0 .2.076.36.23.48.16.113.376.17.65.17zm4.122-6.45h1.56V41h-1.56v-7.42zm3.007 0h1.56V41h-1.56v-7.42zM31.79 5.726A15.082 15.082 0 0023.717.464a.44.44 0 10-.217.852c.138.035.276.073.412.112a25.38 25.38 0 01-.093 1.795c-.536.322-2.173 1.264-3.818 1.816-1.643-.552-3.281-1.494-3.818-1.816a25.403 25.403 0 01-.093-1.791 14.198 14.198 0 015.274-.488.439.439 0 10.084-.875 15.038 15.038 0 00-8.37 1.62 15.132 15.132 0 00-5.22 4.504.44.44 0 00.71.517 14.23 14.23 0 012.431-2.587c.492.359.955.72 1.381 1.08-.044.624-.212 2.507-.702 4.17C10.283 10.4 8.571 11.202 8 11.457c-.46-.265-.934-.56-1.415-.88a14.1 14.1 0 01.864-2.055.44.44 0 00-.78-.404A15.043 15.043 0 005 15c0 4.007 1.56 7.773 4.393 10.607A14.902 14.902 0 0020 30c4.007 0 7.773-1.56 10.607-4.393A14.902 14.902 0 0035 15c0-3.401-1.11-6.608-3.21-9.274zm-.69.544a14.036 14.036 0 012.319 4.306c-.482.32-.957.617-1.418.882-.571-.255-2.282-1.055-3.678-2.086-.49-1.662-.658-3.545-.702-4.17.426-.358.889-.72 1.38-1.079.77.638 1.476 1.357 2.1 2.147zm-10.66-.452c2.035-.712 3.945-1.91 4.03-1.963a.44.44 0 00.202-.328c.057-.575.095-1.183.112-1.815a14.19 14.19 0 013.494 1.852c-.497.37-.966.743-1.396 1.114a.44.44 0 00-.153.354c.005.1.12 2.37.711 4.452a40.287 40.287 0 01-3.213 2.358c-.586-.35-2.146-1.24-3.788-1.815v-4.21zm-8.72-2.256a13.92 13.92 0 013.496-1.849 25.4 25.4 0 00.112 1.814.44.44 0 00.203.328c.084.053 1.994 1.25 4.03 1.963v4.21c-1.642.573-3.202 1.463-3.788 1.814a40.302 40.302 0 01-3.213-2.358c.59-2.083.706-4.352.71-4.452a.44.44 0 00-.152-.355c-.431-.37-.9-.744-1.399-1.115zM5.878 15c0-1.213.15-2.396.446-3.54.487.318.968.61 1.434.872a.439.439 0 00.385.022c.091-.039 2.15-.91 3.896-2.16a40.612 40.612 0 003.263 2.391c-.06.708-.19 2.697.001 4.858a37.177 37.177 0 00-3.286 2.746c-1.74-1.242-3.783-2.105-3.874-2.143a.44.44 0 00-.383.02c-.026.015-.559.31-1.343.818A14.182 14.182 0 015.878 15zm9.45 11.87c-.004.027-.06.574-.096 1.43a13.972 13.972 0 01-3.246-1.669c.69-.526 1.112-.893 1.133-.911a.44.44 0 00.15-.352 20 20 0 00-.085-1.033.44.44 0 10-.874.092c.035.33.056.597.068.769a27.75 27.75 0 01-1.128.89c-.43-.34-.843-.707-1.236-1.101a14.07 14.07 0 01-3.32-5.233A28.55 28.55 0 018 18.942c.572.255 2.281 1.055 3.677 2.085.12.408.23.859.326 1.342a.44.44 0 10.862-.172 16.638 16.638 0 00-.312-1.304 36.723 36.723 0 013.235-2.714c.598.357 2.145 1.237 3.773 1.806v4.597c-2.036.712-3.946 1.909-4.03 1.962a.44.44 0 00-.203.325zM20 29.12c-1.338 0-2.647-.185-3.898-.543.021-.639.058-1.136.08-1.402.537-.322 2.173-1.264 3.818-1.816 1.642.552 3.28 1.494 3.817 1.816.023.266.06.763.081 1.402A14.18 14.18 0 0120 29.12zm4.767-.821a24.362 24.362 0 00-.095-1.43.44.44 0 00-.203-.326c-.084-.053-1.994-1.25-4.03-1.962v-4.597c1.628-.57 3.175-1.449 3.773-1.806.538.4 1.923 1.461 3.235 2.714-.597 2.089-.713 4.374-.718 4.474a.44.44 0 00.15.353c.022.018.444.385 1.134.911a13.96 13.96 0 01-3.246 1.669zm5.218-3.315c-.393.394-.806.76-1.236 1.1-.524-.392-.92-.715-1.128-.889.044-.625.212-2.507.702-4.169 1.394-1.029 3.105-1.83 3.677-2.085.246.143.717.424 1.305.81a14.072 14.072 0 01-3.32 5.233zm2.254-6.919a.44.44 0 00-.383-.02c-.09.038-2.133.901-3.874 2.143a37.151 37.151 0 00-3.287-2.746c.037-.414.064-.844.08-1.286a.44.44 0 00-.878-.032 24.6 24.6 0 01-.079 1.265c-.536.322-2.173 1.264-3.818 1.817-1.643-.552-3.281-1.495-3.818-1.817-.19-2.122-.053-4.125 0-4.769.538-.322 2.173-1.263 3.818-1.816 1.642.552 3.28 1.495 3.817 1.817.021.242.053.677.075 1.234a.439.439 0 10.878-.034c-.021-.55-.052-.979-.073-1.236a40.657 40.657 0 003.263-2.391c1.746 1.25 3.805 2.12 3.896 2.159a.439.439 0 00.385-.022c.467-.262.948-.555 1.436-.874a14.2 14.2 0 01.444 3.542 14.18 14.18 0 01-.539 3.884 25.003 25.003 0 00-1.343-.818z" fill="#E5E5E5"/></svg>
